X:2754
L:1/16
M:2/4
K:F
 c2 |{fg} f>ef>a (g3/2e2<f2).d/ | (c>=Bd>).c (B>c)A>F |{Bc} B>AB>d c>(ef>).a |{ga} g>^fg>a .g2.c2 | 
{fg} f>ef>a (g>ef>).d | (c>=Bd3/2).c (B>c)A>F |{Bc} B>AB>d c>(bg>).e | .f2(a2f2) :| !fermata!A2 | 
 d>^cd>f (e>cA3/2).c | d>^cd>f (e>cA>).c | d>^cd>c d>ef>g | a>^ga>b .a2.A2 | d>^cd>f (e>cA>)c | 
 d>^cd>f (e>cA>).c |1 d>^cd>e f>ef>g | .a2.[E^c]2.[Fd]2 :|2 d>^cd>e f>ed>e f>ef>g | 
 a>^ga>g a>_ba>=g!D.C.! ||

